X:343
T:
R:polska
S:Efter Karl Odin, Kaupe i Fröjel.
N:Variant av Laurins polska (342). Tonarten har även blivit ändrad.
O:Gotland, Fröjel
M:3/4
L:1/16
K:F
fefg f2c2A2F2|F2B2 ABcd c4|f2fg a2af b2bg|fefa gfed c4|
fefg f2c2A2F2|F2B2 ABcd c4|f2fg a2af b2bg|fede g4 f4::
fafc fafc fafc|egec egec egec|dfdB dfdB dfdB|f2fa gfed c4|
BdBF BdBF BdBF|AcAF AcAF AcAF|d2BG c2AF B2GE|C2DE G4 F2 z2:|
